X: 2139
T: Aube Mauve
R: waltz
M: 3/4
K: Gmajor
"G"DE GA GA|AG AB AG|"C"c2 B2 G2|"D"A2 AG AB|
"G"DE GA GA|AG AB AG|"C"dc/B/ AG DG|1 E2 GF GE:|2 E3 G AB||
"Am"c2 cB Ac|"Em"B3 A GB|"D"AB AG FA|"G"Bc AB GB|
"Am"c2 cB Ac|"Em"B2 BF Bd|"D"gf/e/ dc BA|B2 BF B/c/d|
"Am"c2 cB Ac|"Em"B3 A GB|"D"AB AG FA|"G"Bc AB GB|
"Am"c2 cB Ac|"Em"B2 BA GB|"D"AB AG FE|D6|
"Em7"EF GA Bg|fd ed BG|"F"~c3 B AG|AB BG FG|
"Em7"EF GA Ba|g/f/e fd eg|"F"Bc cB AG|A2 B4|
"Em7"EF GA Bg|fd ed BG|"F"~c3 B AG|A3 G B/c/d|
"Am"c2 cB AB|c2 cG B/c/d|"C"ef ge ag|"D"f3 e fa||

